src/pos-icons/sort-alphabetical-descending.svg

<svg height="24" viewBox="0 0 24 24" width="24" xmlns="http://www.w3.org/2000/svg"><path d="m19 7h3l-4-4-4 4h3v14h2m-8-8v2l-3.33 4h3.33v2h-6v-2l3.33-4h-3.33v-2m4-10h-2c-1.1 0-2 .9-2 2v6h2v-2h2v2h2v-6c0-1.1-.89-2-2-2m0 4h-2v-2h2z"/></svg>

<?xml version="1.0" encoding="UTF-8"?><!DOCTYPE svg PUBLIC "-//W3C//DTD SVG 1.1//EN" "http://www.w3.org/Graphics/SVG/1.1/DTD/svg11.dtd"><svg xmlns="http://www.w3.org/2000/svg" xmlns:xlink="http://www.w3.org/1999/xlink" version="1.1" id="mdi-sort-alphabetical-descending" width="24" height="24" viewBox="0 0 24 24"><path d="M19 7H22L18 3L14 7H17V21H19M11 13V15L7.67 19H11V21H5V19L8.33 15H5V13M9 3H7C5.9 3 5 3.9 5 5V11H7V9H9V11H11V5C11 3.9 10.11 3 9 3M9 7H7V5H9Z" /></svg>
